icons/telescope-fill-24.svg

<svg xmlns="http://www.w3.org/2000/svg" width="24" height="24" viewBox="0 0 24 24"><path d="M17.155 22.87a.75.75 0 00.226-1.036l-4-6.239a.75.75 0 00-.941-.277l-2.75 1.25a.75.75 0 00-.318.273l-3.25 4.989a.75.75 0 001.256.819l3.131-4.806.51-.232v5.64a.75.75 0 101.5 0v-6.22l3.6 5.613a.75.75 0 001.036.226zM.408 15.13a2 2 0 01.59-2.642L17.038 1.33a1.999 1.999 0 012.85.602l2.828 4.644a2 2 0 01-.851 2.847l-17.762 8.43a2 2 0 01-2.59-.807zm13.105-9.521l2.857 4.76 1.361-.646-2.984-4.973zm-7.842 5.455l-1.235.86 1.862 3.225 1.36-.645z"/></svg>

<svg xmlns="http://www.w3.org/2000/svg" width="24" height="24" viewBox="0 0 24 24">
  <defs/>
  <path d="M17.155,22.87 A0.75 0.75 0 0 0 17.381,21.834 L13.381,15.595 A0.75 0.75 0 0 0 12.44,15.318 L9.69,16.568 A0.75 0.75 0 0 0 9.372,16.841 L6.122,21.83 A0.75 0.75 0 0 0 7.378,22.649 L10.509,17.843 L11.019,17.611 L11.019,23.251 A0.75 0.75 0 1 0 12.519,23.251 L12.519,17.031 L16.119,22.644 A0.75 0.75 0 0 0 17.155,22.87 Z"/>
  <path d="M0.408,15.13 C-0.112,14.23 0.145,13.082 0.998,12.488 L17.038,1.33 C17.491,1.015 18.053,0.901 18.593,1.015 C19.133,1.129 19.601,1.461 19.888,1.932 L22.716,6.576 C23.011,7.06 23.086,7.646 22.924,8.189 C22.762,8.732 22.377,9.18 21.865,9.423 L4.103,17.853 C3.161,18.3 2.034,17.949 1.513,17.046 Z M13.513,5.609 L16.37,10.369 L17.731,9.723 L14.747,4.75 Z M5.671,11.064 L4.436,11.924 L6.298,15.149 L7.658,14.504 Z"/>
</svg>
